X:1
T:Let Us Walk in the Light
T:Let Us Walk in the Light
T:Ira David Sankey
T:Frances Jane (Fanny) Crosby, 1895
T:Public Domain Courtesy of the Cyber Hymnal™
C:Ira David Sankey
Z:Public Domain
Z:Courtesy of the Cyber Hymnal™
%%score ( 1 2 ) ( 3 4 )
L:1/8
Q:1/4=113
M:4/4
K:Eb
V:1 treble 
V:2 treble 
V:3 bass 
V:4 bass 
V:1
 B,2 | [B,E]2 [EG]2 [DF]2 [FA]2 | [EG]2 [Ec]2 [EB]2 E2 | [EG]2 [EG]2 [FA]2 [EG]2 | [DF]6 B,2 | %5
w: 1.~There|is a light, a|bless- èd light, That|comes from God a-|bove; And|
w: 2.~There|is a light, a|glo- rious light, That|falls up- on our|way; And|
w: 3.~There|is a light, a|Ho- ly light, By|which we now be-|hold The|
w: 4.~O|bless- èd, bless- èd,|ho- ly light, To|all so free- ly|giv’n; Shine|
 [B,E]2 [EG]2 [DF]2 [FA]2 | [EG]2 [Ec]2 [EB]2 E2 | [CG]2 [CF]2 [B,E]2 [B,D]2 | [B,E]6 || %9
w: in the face of|Christ the Lord, Re-|flects the Fa- ther’s|love.|
w: bright- er shin- eth|as we go, Till|lost in per- fect|day.|
w: jas- per walls, the|pearl- y gates And|streets of shin- ing|gold.|
w: forth, shine forth, O|light of life, And|guide us safe to|Heav’n.|
"^Refrain" [EG]>[FA] | [GB]6 [Ac]>[GB] | [FA]6 [DF]>[EG] | [FA]2 [FA]>[FA] [DB]2 [FA]2 | %13
w: ||||
w: Let us|walk in the|light, Ev- er|walk in the light of|
w: ||||
w: ||||
 [EG]6 [EG]>[FA] | [GB]6 [Ac]>[Fd] | ([Ge-]4 !fermata![Ae]2) [Ac]>[Ac] | [GB]2 [EG]>E [EG]2 [DF]2 | %17
w: ||||
w: God; Let us|walk in the|light, * Ev- er|walk in the light of|
w: ||||
w: ||||
 E6 |] %18
w: |
w: God.|
w: |
w: |
V:2
 B,2 | x8 | x6 E2 | x8 | x6 B,2 | x8 | x6 E2 | x8 | x6 || x2 | x8 | x8 | x8 | x8 | x8 | x8 | %16
 x7/2 E/ x4 | E6 |] %18
V:3
 [E,G,]2 | [E,G,]2 [E,B,]2 [B,,B,]2 [B,,B,]2 | [E,B,]2 [E,A,]2 [E,G,]2 [E,G,]2 | %3
w: ~|~ ~ ~ ~|~ ~ ~ ~|
 [E,B,]2 [E,B,]2 [D,B,]2 [E,B,]2 | [B,,B,]6 [E,G,]2 | [E,G,]2 [E,B,]2 [B,,B,]2 [B,,B,]2 | %6
w: ~ ~ ~ ~|~ ~|~ ~ ~ ~|
 [E,B,]2 [E,A,]2 [E,G,]2 [G,,B,]2 | [A,,B,]2 [A,,A,]2 [B,,G,]2 [B,,F,]2 | [E,G,]6 || z2 | %10
w: ~ ~ ~ ~|~ ~ ~ ~|~||
 z2 [E,B,]>[E,B,] [E,E]2 z2 | z2 B,>B, [B,D]2 [B,,B,]>[B,,B,] | %12
w: Let us walk|in the Light, ~ ~|
 [B,,B,]2 [B,,B,]>[B,,B,] [B,,F,]2 [B,,B,]2 | [E,B,]6 z2 | z2 [E,B,]>[E,B,] [E,E]2 z2 | %15
w: ~ ~ ~ ~ ~|~|Let us walk|
 z2 [E,B,]>[E,_D] !fermata![A,,C]2 [A,,C]>[A,,C] | [B,,E]2 [B,,B,]>[C,G,] [B,,B,]2 [B,,A,]2 | %17
w: in the Light, * *||
 [E,G,]6 |] %18
w: |
V:4
 x2 | x8 | x8 | x8 | x8 | x8 | x8 | x8 | x6 || x2 | x8 | x2 B,>B, x4 | x8 | x8 | x8 | x8 | x8 | %17
 x6 |] %18

